X:649
T: Gechang xingxianfa
N: C2173
O: China, Hubei Yueyang
S: I, 494]
R: Wuge, Sangubang]
M: 2/4
L: 1/16
K: C
EGGAd2Ac | A2G6 | A2ddAcAc | GAc6
AcAce2d2 | AcAcA3G | AcAdc3d | AcG2A4 | Acd2AGA2 | G8

